X: 96
T: the Shores of Lough Gowna
R: jig
Z: 2012 John Chambers <jc@trillian.mit.edu>
B: "100 Essential Irish Session Tunes" 1995 Dave Mallinson, ed.
M: 6/8
L: 1/8
K: Bm
A |\
"Bm"B3 BAF | "D"FEF DFA | "Bm"BcB BAF | "D"d2e fed |\
"Bm"B3 BAF | "D"FEF DFA | "Bm"def "Em"gfe | "Bm"fdB B2 :|
|: A |\
"D"def a2b | "D"afb afe | "D"dFA def | "Em"gfe "Bm"fdB |\
"D"def a2b | "D"afb afe | "Bm"def "Em"gfe | "Bm"fdB B2 :|

%%sep 2 1 500
%%sep 1 1 500

